X:355
T: GUDEN ABEND SPELMANN
N: E0983
O: Europa, Mitteleuropa, Deutschland, Bergisches Land, Langenberg
R: Tanz - Lied, Reigen
M: 3/8
L: 1/16
K: G
DD | B2B2A2 | G4
D2 | B2B2B2 | G4
GG | B2B2A2 | G2G2
GG | B2B2A2 | G4
B2 | d2d2d2 | e2e2
c2 | c2c2e2 | d4
c2 | B2B2B2 | d2d2
B2 | A2A2A2 | G4

